src/icons/wechat.svg

<svg width="28" height="28" viewBox="0 0 28 28" fill="none" xmlns="http://www.w3.org/2000/svg">
<rect width="28" height="28" rx="4" fill="white"/>
<path fill-rule="evenodd" clip-rule="evenodd" d="M20.1593 18.8256C20.6449 18.5015 21.0451 18.0672 21.3267 17.5591C21.6083 17.0509 21.7631 16.4835 21.7782 15.9042C21.7782 13.7715 19.6804 12.0417 17.0927 12.0417C14.5049 12.0417 12.4071 13.7715 12.4071 15.9042C12.4071 18.0369 14.5054 19.7672 17.0927 19.7672C17.6102 19.7678 18.1252 19.6966 18.6227 19.5556L18.7599 19.5353C18.8478 19.5368 18.9337 19.5615 19.0088 19.6067L20.0349 20.1927L20.1249 20.2218C20.1454 20.2218 20.1658 20.2178 20.1847 20.21C20.2037 20.2022 20.221 20.1908 20.2355 20.1764C20.25 20.162 20.2615 20.1449 20.2693 20.1261C20.2771 20.1073 20.2811 20.0871 20.281 20.0668L20.256 19.9541L20.0449 19.1752L20.0282 19.0763C20.0281 19.027 20.04 18.9784 20.0628 18.9346C20.0856 18.8908 20.1187 18.853 20.1593 18.8245V18.8256ZM11.8449 7.77734C8.73932 7.77734 6.22266 9.85233 6.22266 12.4132C6.24105 13.1081 6.42695 13.7886 6.76487 14.398C7.1028 15.0074 7.58298 15.5281 8.16543 15.9168C8.21423 15.951 8.25399 15.9963 8.28135 16.049C8.30872 16.1016 8.32288 16.1599 8.32266 16.2191L8.30321 16.3373L8.04988 17.2723L8.01932 17.4075C8.01932 17.4567 8.03903 17.5038 8.07413 17.5387C8.10922 17.5735 8.15684 17.5931 8.20655 17.5933L8.31543 17.5587L9.54654 16.8551C9.63631 16.8008 9.73915 16.7714 9.84432 16.7699L10.0099 16.7941C10.6067 16.9635 11.2245 17.0493 11.8454 17.0491L12.1538 17.0414C12.0293 16.6753 11.9655 16.2916 11.9649 15.9053C11.9649 13.5708 14.261 11.6778 17.0927 11.6778L17.3982 11.6855C16.9749 9.47087 14.6499 7.77734 11.8454 7.77734H11.8449ZM15.5299 15.2874C15.4063 15.2874 15.2854 15.2512 15.1826 15.1832C15.0799 15.1153 14.9998 15.0187 14.9525 14.9057C14.9051 14.7927 14.8928 14.6684 14.9169 14.5484C14.941 14.4285 15.0005 14.3183 15.0879 14.2318C15.1753 14.1453 15.2867 14.0864 15.4079 14.0626C15.5292 14.0387 15.6549 14.051 15.7691 14.0978C15.8833 14.1446 15.9809 14.2238 16.0495 14.3255C16.1182 14.4272 16.1549 14.5468 16.1549 14.6691C16.155 14.7503 16.1388 14.8307 16.1075 14.9058C16.0761 14.9808 16.03 15.049 15.972 15.1065C15.9139 15.1639 15.845 15.2095 15.7691 15.2405C15.6933 15.2716 15.612 15.2875 15.5299 15.2874V15.2874ZM18.6543 15.2874C18.5307 15.2877 18.4097 15.2516 18.3068 15.1838C18.2039 15.1159 18.1236 15.0194 18.0761 14.9065C18.0286 14.7935 18.0161 14.6691 18.0401 14.5491C18.0641 14.4291 18.1235 14.3188 18.2109 14.2322C18.2982 14.1456 18.4096 14.0866 18.5309 14.0626C18.6521 14.0387 18.7779 14.0509 18.8921 14.0977C19.0064 14.1444 19.1041 14.2237 19.1728 14.3254C19.2415 14.4271 19.2782 14.5467 19.2782 14.6691C19.2782 14.8329 19.2125 14.99 19.0955 15.1059C18.9786 15.2219 18.8199 15.2871 18.6543 15.2874ZM9.97043 11.6706C9.82205 11.6706 9.677 11.6271 9.55364 11.5455C9.43028 11.4639 9.33415 11.348 9.27742 11.2123C9.22069 11.0766 9.2059 10.9274 9.23493 10.7834C9.26396 10.6394 9.3355 10.5072 9.4405 10.4035C9.5455 10.2998 9.67924 10.2292 9.8248 10.2007C9.97036 10.1721 10.1212 10.187 10.2582 10.2433C10.3952 10.2997 10.5123 10.3949 10.5946 10.5171C10.6769 10.6393 10.7207 10.7829 10.7204 10.9297C10.7204 11.0271 10.701 11.1236 10.6633 11.2136C10.6256 11.3036 10.5704 11.3853 10.5007 11.4542C10.4311 11.5231 10.3484 11.5777 10.2574 11.6149C10.1664 11.6521 10.0689 11.6713 9.97043 11.6712V11.6706ZM13.7188 11.6706C13.5704 11.6706 13.4253 11.6271 13.302 11.5455C13.1786 11.4639 13.0825 11.348 13.0258 11.2123C12.969 11.0766 12.9542 10.9274 12.9833 10.7834C13.0123 10.6394 13.0838 10.5072 13.1888 10.4035C13.2938 10.2998 13.4276 10.2292 13.5731 10.2007C13.7187 10.1721 13.8695 10.187 14.0065 10.2433C14.1436 10.2997 14.2606 10.3949 14.3429 10.5171C14.4252 10.6393 14.469 10.7829 14.4688 10.9297C14.4688 11.0271 14.4494 11.1236 14.4117 11.2136C14.374 11.3036 14.3187 11.3853 14.2491 11.4542C14.1794 11.5231 14.0967 11.5777 14.0057 11.6149C13.9147 11.6521 13.8172 11.6713 13.7188 11.6712V11.6706Z" fill="#491060" fill-opacity="0.75"/>
</svg>

<svg xmlns="http://www.w3.org/2000/svg" width="28" height="28" fill="none" xmlns:v="https://vecta.io/nano"><rect width="28" height="28" rx="4" fill="#fff"/><path fill-rule="evenodd" d="M20.159 18.826a3.65 3.65 0 0 0 1.167-1.267 3.61 3.61 0 0 0 .451-1.655c0-2.133-2.098-3.862-4.685-3.862s-4.686 1.73-4.686 3.862 2.098 3.863 4.686 3.863a5.59 5.59 0 0 0 1.53-.212l.137-.02a.5.5 0 0 1 .249.071l1.026.586.09.029c.02 0 .041-.004.06-.012s.036-.019.051-.034.026-.032.034-.05.012-.039.012-.059l-.025-.113-.211-.779-.017-.099c0-.049.012-.098.035-.142a.31.31 0 0 1 .097-.11v.001zM11.845 7.777c-3.106 0-5.622 2.075-5.622 4.636a4.33 4.33 0 0 0 .542 1.985 4.38 4.38 0 0 0 1.401 1.519.37.37 0 0 1 .116.132c.027.053.042.111.041.17l-.019.118-.253.935-.031.135c0 .049.02.096.055.131a.19.19 0 0 0 .132.055l.109-.035 1.231-.704a.59.59 0 0 1 .298-.085l.166.024c.597.169 1.215.255 1.835.255l.308-.008c-.125-.366-.188-.75-.189-1.136 0-2.335 2.296-4.228 5.128-4.228l.305.008c-.423-2.215-2.748-3.908-5.553-3.908h0zm3.685 7.51a.63.63 0 0 1-.347-.104.62.62 0 0 1-.23-.277.61.61 0 0 1-.036-.357c.024-.12.084-.23.171-.317s.199-.145.32-.169a.63.63 0 0 1 .361.035c.114.047.212.126.28.228s.105.221.105.344c0 .081-.016.162-.047.237a.62.62 0 0 1-.136.201c-.058.057-.127.103-.203.134a.63.63 0 0 1-.239.047h0zm3.124 0a.63.63 0 0 1-.348-.104.62.62 0 0 1-.231-.277.61.61 0 0 1-.036-.357c.024-.12.083-.23.171-.317s.199-.146.32-.17a.63.63 0 0 1 .361.035c.114.047.212.126.281.228s.105.221.105.344c0 .164-.066.321-.183.437a.63.63 0 0 1-.441.181zM9.97 11.671c-.148 0-.293-.043-.417-.125s-.219-.197-.276-.333-.072-.285-.042-.429a.74.74 0 0 1 .206-.38c.105-.104.239-.174.384-.203s.296-.014.433.043a.75.75 0 0 1 .336.274c.082.122.126.266.126.413 0 .097-.019.194-.057.284a.74.74 0 0 1-.163.241.75.75 0 0 1-.243.161c-.091.037-.189.056-.287.056h0zm3.748 0c-.148 0-.293-.043-.417-.125s-.22-.197-.276-.333-.072-.285-.043-.429a.74.74 0 0 1 .206-.38c.105-.104.239-.174.384-.203s.296-.014.433.043a.75.75 0 0 1 .336.274c.082.122.126.266.126.413 0 .097-.019.194-.057.284a.74.74 0 0 1-.163.241.75.75 0 0 1-.243.161c-.091.037-.188.056-.287.056h0z" fill="#491060" fill-opacity=".75"/></svg>
